X: 290
T: Kinnon Beaton's Jig
M:6/8
R:jig
L:1/8
C: Dan R. MacDonald
Z:Alf Warnock - alf0@rogers.com
K:D
E|"D"D2f fed|ABA AFD|"A"ECA, A,CE|"D"DFA dAF|
D2f fed|ABA AFD|"A7"GFE dAF|"D"D3 D2:|
g|"D"fed Adf|"A7"gec Ace|"D"fdf aba|"A7"gag faf|
"D"fed Adf|"A"gec Ace|"D"dAF "A"EAF|"D"D3 D2:|
